public/logo.svg

<svg width="190" height="36" viewBox="0 0 190 36" fill="none" xmlns="http://www.w3.org/2000/svg">
<path d="M7.05369 36C5.5472 35.7823 4.88225 35.0889 4.79527 33.7501C4.77722 33.4656 4.78666 33.1793 4.78666 32.8929C4.78666 28.2079 4.78666 23.5229 4.78666 18.8387C4.78666 18.537 4.78666 18.2344 4.78666 17.7827C3.14585 18.7709 1.64372 19.6753 0.125264 20.5898C-0.17538 20.1089 0.130432 19.9787 0.360428 19.8346C1.28376 19.2578 2.21136 18.6878 3.13815 18.1162C3.5283 17.8753 3.91157 17.6233 4.31125 17.4005C4.642 17.2162 4.79527 16.9847 4.79446 16.5827C4.77895 11.8694 4.77723 7.15606 4.78321 2.44278C4.78493 1.29938 4.30345 0.533962 3.15882 0.11312C3.79104 0.105359 4.42235 0.0942583 5.05456 0.0908287C5.68161 0.0864967 6.30865 0.0908287 7.01143 0.0908287V15.5962C7.31724 15.4557 7.51876 15.3879 7.69361 15.279C11.542 12.8971 15.3886 10.5126 19.2326 8.12373C23.3678 5.55329 27.4969 2.97156 31.6415 0.416545C31.9611 0.219346 32.3831 0.13108 32.7655 0.104546C33.4692 0.0556301 34.179 0.0908282 34.9386 0.248497C34.4485 0.56564 33.9601 0.885401 33.4683 1.19993C27.9715 4.72532 22.4513 8.21552 16.9872 11.7915C14.8339 13.2005 12.7676 14.7511 10.741 16.3376C9.92183 16.9778 9.24744 17.8376 8.62983 18.6861C8.04241 19.4935 8.17936 20.3216 8.84948 20.9189C9.07857 21.1229 9.37142 21.2789 9.66254 21.3853C10.6299 21.74 11.5979 22.1027 12.5867 22.3897C14.6495 22.9872 16.7287 23.5306 18.7976 24.11C22.2998 25.0914 25.8139 26.0351 29.2936 27.0894C31.5398 27.7699 33.3882 29.1216 34.899 30.9139C35.8783 32.0761 36.476 33.4227 36.7896 34.8987C36.8353 35.1154 36.8232 35.3443 36.7379 35.5972C36.675 35.4609 36.5975 35.3298 36.5518 35.1884C36.0437 33.6181 35.0093 32.4747 33.632 31.6064C32.3107 30.7733 30.8689 30.2042 29.3746 29.7944C27.1377 29.1808 24.881 28.6424 22.6331 28.0691C18.9699 27.1348 15.2999 26.2262 11.6522 25.238C10.84 25.0177 10.0708 24.5694 9.34385 24.1255C8.34732 23.516 7.78403 22.5723 7.51105 21.4349C7.08289 19.653 7.34907 18.0339 8.57124 16.6256C9.26376 15.8276 9.9864 15.0553 10.7634 14.1974C10.5368 14.2942 10.3679 14.3457 10.2224 14.4331C9.41277 14.9207 8.62466 15.4462 7.79609 15.8996C7.22682 16.2116 7.03038 16.5999 7.03555 17.2616C7.07001 21.8035 7.05369 26.3454 7.05369 30.8873C7.05369 32.3152 7.05369 33.7441 7.05369 35.172C7.05369 35.424 7.05369 35.6761 7.05369 35.9983V36Z" fill="#212121"/>
<path d="M155.839 35.5732C155.026 33.0242 153.134 31.6305 150.833 30.6568C148.821 29.8048 146.703 29.2948 144.588 28.7686C139.948 27.6132 135.306 26.462 130.685 25.2321C129.796 24.9955 128.96 24.4709 128.172 23.966C127.268 23.3875 126.799 22.4713 126.545 21.4316C126.11 19.6488 126.39 18.0314 127.607 16.6231C128.297 15.8234 129.022 15.0528 129.798 14.1957C129.571 14.2942 129.401 14.3457 129.254 14.4349C128.421 14.9388 127.61 15.4805 126.758 15.952C126.242 16.2374 126.07 16.5905 126.074 17.1794C126.099 21.8644 126.087 26.5486 126.087 31.2336C126.087 32.5193 126.087 33.805 126.087 35.0898C126.087 35.371 126.087 35.6521 126.087 35.9306C124.866 35.9323 124.139 35.3744 123.907 34.255C123.826 33.8684 123.824 33.4605 123.824 33.0627C123.818 28.3494 123.82 23.6361 123.82 18.9228C123.82 18.6099 123.82 18.2971 123.82 17.8873C123.587 17.9756 123.405 18.0142 123.256 18.105C122.102 18.8002 120.957 19.5073 119.805 20.205C119.595 20.3319 119.369 20.4321 119.132 20.553C118.862 20.1064 119.165 19.977 119.395 19.8339C120.318 19.257 121.246 18.6879 122.173 18.1162C122.563 17.8753 122.947 17.6233 123.347 17.4005C123.678 17.2153 123.829 16.9822 123.827 16.5811C123.812 11.8677 123.81 7.15447 123.816 2.4411C123.818 1.29852 123.335 0.533997 122.17 0.185989C123.454 0.0805751 124.711 0.0916755 126.046 0.0942927V15.5954C126.352 15.4548 126.553 15.3863 126.729 15.2774C130.577 12.8954 134.425 10.5109 138.267 8.12214C142.403 5.55161 146.533 2.97078 150.676 0.413151C150.973 0.228858 151.361 0.126873 151.715 0.104581C152.447 0.0582823 153.185 0.0908634 153.97 0.246818C153.456 0.582011 152.945 0.918828 152.43 1.25059C146.504 5.06136 140.561 8.84722 134.659 12.6949C132.597 14.038 130.54 15.4145 128.831 17.2128C128.381 17.6868 127.949 18.1993 127.615 18.7574C127.01 19.7704 127.311 20.7424 128.393 21.2319C129.197 21.5961 130.048 21.8721 130.898 22.1224C133.204 22.803 135.52 23.4527 137.835 24.1075C141.333 25.0983 144.85 26.0351 148.329 27.0894C150.576 27.77 152.424 29.1217 153.934 30.9147C154.913 32.077 155.508 33.4244 155.826 34.8995C155.856 35.0384 155.87 35.1824 155.875 35.3238C155.879 35.4061 155.852 35.4901 155.838 35.5732H155.839Z" fill="#212121"/>
<path d="M189.52 13.9669C188.792 10.4732 187.15 7.43474 184.618 4.90446C182.144 2.43257 179.202 0.776545 175.709 0.265723C174.357 0.0677118 173.659 -0.0291272 172.281 0.00769532C169.043 0.0943365 165.425 1.02853 162.814 2.87398C157.651 6.52185 155.221 11.6132 155.037 17.8394C155.037 18.3528 154.988 18.8722 155.045 19.3796C155.428 22.8099 156.477 26.0035 158.567 28.7994C160.782 31.7633 163.6 33.9216 167.163 35.0667C169.401 35.7867 171.682 35.9907 174.026 35.815C177.424 35.5596 180.414 34.3398 183.076 32.2604C185.617 30.2736 187.413 27.74 188.647 24.7855C189.56 22.5938 189.905 20.2753 189.994 17.9431C190.044 16.6239 189.792 15.2714 189.52 13.9669ZM187.051 18.0845C186.975 22.7215 185.623 26.8966 182.482 30.4082C180.267 32.8861 177.528 34.4787 174.208 34.9192C169.999 35.4773 166.408 34.081 163.381 31.2071C160.472 28.4462 158.876 25.0006 158.234 21.0793C157.598 17.1957 158.073 13.45 159.693 9.87577C161.331 6.26472 163.86 3.46621 167.575 1.86597C171.361 0.23576 175.085 0.496315 178.655 2.46686C182.518 4.5976 184.869 7.96181 186.177 12.0932C186.769 13.9626 187.089 15.8345 187.051 18.0845Z" fill="#212121"/>
<path d="M102.054 34.9449H100.949C100.866 34.3929 100.738 33.9233 100.737 33.4544C100.72 29.0839 100.725 24.7143 100.727 20.3447C100.727 20.1835 100.765 20.0215 100.788 19.8389C101.003 19.8252 101.171 19.8046 101.339 19.8046C104.497 19.8029 107.654 19.8029 110.811 19.8029C110.926 19.8029 111.041 19.7978 111.155 19.8098C111.852 19.8793 112.23 20.319 112.192 21.0149C112.18 21.2146 112.149 21.4126 112.127 21.6115C112.171 21.6218 112.214 21.6329 112.258 21.6432C112.763 20.805 113.269 19.9666 113.859 18.9879H100.777C100.755 18.8036 100.729 18.6955 100.729 18.5876C100.72 13.5323 100.703 8.47693 100.719 3.42159C100.723 1.70817 102.023 0.490232 103.756 0.48933C108.29 0.486803 112.826 0.48933 117.361 0.486803C117.618 0.486803 117.876 0.460269 118.133 0.446551C118.026 0.239965 117.909 0.115689 117.791 0.115689C110.08 0.106213 102.368 0.107115 94.6576 0.107115C94.6503 0.173992 94.6422 0.240778 94.6358 0.308557C95.375 0.728496 96.2665 0.305127 97.109 0.587072C96.914 0.899974 96.7553 1.16396 96.5875 1.42108C92.8918 7.06612 89.1925 12.7094 85.4977 18.3553C82.1947 23.4029 78.8835 28.4454 75.6086 33.5101C74.9701 34.4966 74.1784 35.0324 72.9894 34.9501C72.8207 34.939 72.6457 34.9972 72.4507 35.0272C72.9033 35.7978 73.5254 35.9804 74.309 35.9289C75.166 35.8741 76.0294 35.9212 76.891 35.9126C77.0706 35.9109 77.2501 35.862 77.4433 35.8329C77.1803 35.2184 76.7949 34.8643 76.1147 34.8807C76.2081 34.6998 76.2507 34.5944 76.3115 34.501C79.3823 29.779 82.4613 25.0631 85.5158 20.3318C85.7897 19.9075 86.0944 19.7926 86.5669 19.7943C90.24 19.809 93.9139 19.8021 97.5878 19.8038C97.811 19.8046 98.034 19.8244 98.3079 19.8381C98.3297 20.0293 98.3478 20.1141 98.3478 20.1989C98.3397 24.1683 98.3433 28.1385 98.3116 32.1079C98.2989 33.7304 97.0999 34.8841 95.472 34.9492C95.1881 34.9603 94.8798 34.8575 94.5669 35.04C95.0684 35.5029 95.4348 35.9409 96.1966 35.9375C103.257 35.9023 110.317 35.9169 117.379 35.9152C117.56 35.9152 117.743 35.8972 118.068 35.88C117.37 35.238 116.777 34.9149 115.917 34.9235C111.297 34.9698 106.675 34.9449 102.054 34.9449ZM98.3469 18.6176C98.3469 18.7007 98.3252 18.7847 98.3052 18.9338C98.0984 18.9561 97.8799 18.999 97.6631 18.999C95.511 19.0041 93.358 19.0084 91.2058 19.0007C89.7194 18.9947 88.4279 18.5987 87.6444 17.0859C91.0789 11.8017 94.5324 6.48842 97.9851 1.17596C98.0613 1.17849 98.1356 1.18111 98.2109 1.18282C98.2572 1.48282 98.3451 1.78191 98.3451 2.08109C98.3533 7.59319 98.3497 13.1054 98.3469 18.6176Z" fill="#212121"/>
<path d="M50.5841 0.136268H55.8338C55.8149 0.186809 55.8071 0.263974 55.7804 0.271645C54.6874 0.569926 54.4264 1.39708 54.4256 2.3828C54.4212 5.411 54.4221 8.4392 54.4195 11.4674C54.4144 18.3527 54.4041 25.238 54.41 32.1233C54.41 32.8613 54.4919 33.601 54.5548 34.3381C54.5685 34.5001 54.665 34.6544 54.7623 34.9192H70.5084V35.892H50.2086C50.3989 35.5269 50.715 35.5287 50.958 35.437C51.5729 35.2038 51.9829 34.825 52.0294 34.1332C52.0526 33.7939 52.1259 33.4552 52.1259 33.1167C52.1311 22.9743 52.1301 12.832 52.1293 2.68966C52.1293 2.43334 52.1242 2.17532 52.1 1.9199C52.0268 1.1451 51.684 0.566496 50.8916 0.326518C50.8227 0.305941 50.7641 0.249353 50.5841 0.136268Z" fill="#212121"/>
<path d="M40.7083 0.0891495C42.1665 0.0891495 43.6247 0.0874345 45.0829 0.0908641C45.3051 0.0908641 45.5274 0.110539 45.7634 0.120828C45.7297 0.202234 45.7211 0.277684 45.6918 0.28707C44.7152 0.601686 44.4059 1.3422 44.3999 2.2791C44.3938 3.13531 44.3827 3.99243 44.3827 4.84873C44.381 13.7294 44.3818 22.6101 44.3827 31.4916C44.3827 32.0915 44.4102 32.6915 44.3947 33.2907C44.3637 34.44 44.7169 35.3135 45.9666 35.5921C46.045 35.6092 46.1156 35.6675 46.1863 35.712C46.207 35.7258 46.2164 35.7575 46.2311 35.7815C45.6832 35.9983 41.1432 36.0249 40.0632 35.7635C40.4767 35.6066 40.7221 35.5046 40.9727 35.4206C41.5774 35.2184 41.9227 34.8078 42.0046 34.1795C42.0485 33.8419 42.1183 33.5032 42.12 33.1647C42.1303 30.1382 42.1269 27.1108 42.1286 24.0843C42.1321 17.3165 42.1372 10.5486 42.1398 3.78079C42.1398 3.32393 42.1363 2.86708 42.1208 2.41023C42.0873 1.40655 41.8461 0.532283 40.6618 0.266493C40.6782 0.207378 40.6945 0.147361 40.7109 0.0882461L40.7083 0.0891495Z" fill="#212121"/>
</svg>

<svg xmlns="http://www.w3.org/2000/svg" width="190" height="36" fill="#212121" xmlns:v="https://vecta.io/nano"><path d="M7.054 36c-1.506-.218-2.171-.911-2.258-2.25-.018-.285-.009-.571-.009-.857V18.839v-1.056L.125 20.59c-.301-.481.005-.611.235-.755l2.778-1.718 1.173-.716a.83.83 0 0 0 .483-.818l-.011-14.14C4.785 1.3 4.303.534 3.159.113L5.055.091h1.957v15.505l.682-.317 11.539-7.155L31.642.417c.32-.197.742-.285 1.124-.312.704-.049 1.413-.014 2.173.144l-1.47.951-16.481 10.592-6.246 4.546c-.819.64-1.494 1.5-2.111 2.349-.587.807-.45 1.636.22 2.233.229.204.522.36.813.466l2.924 1.004 6.211 1.72 10.496 2.979c2.246.68 4.095 2.032 5.605 3.825.979 1.162 1.577 2.509 1.891 3.985a1.3 1.3 0 0 1-.052.699c-.063-.136-.14-.267-.186-.409-.508-1.57-1.542-2.714-2.92-3.582-1.321-.833-2.763-1.402-4.257-1.812l-6.742-1.725-10.981-2.831c-.812-.22-1.581-.669-2.308-1.113-.997-.61-1.56-1.553-1.833-2.691-.428-1.782-.162-3.401 1.06-4.809l2.192-2.428c-.227.097-.396.148-.541.236L7.796 15.9c-.569.312-.766.7-.761 1.362l.018 13.626v4.285.826V36zm148.785-.427c-.813-2.549-2.705-3.943-5.006-4.916-2.012-.852-4.13-1.362-6.245-1.888l-13.903-3.536c-.889-.237-1.725-.761-2.513-1.266-.904-.579-1.373-1.495-1.627-2.534-.435-1.783-.155-3.4 1.062-4.808l2.191-2.427c-.227.098-.397.15-.544.239l-2.496 1.517c-.516.285-.688.638-.684 1.227l.013 14.054v3.856.841c-1.221.002-1.948-.556-2.18-1.676-.081-.387-.083-.794-.083-1.192l-.004-14.14v-1.035c-.233.088-.415.127-.564.218l-3.451 2.1c-.21.127-.436.227-.673.348-.27-.447.033-.576.263-.719l2.778-1.718 1.174-.716a.83.83 0 0 0 .48-.819l-.011-14.14c.002-1.143-.481-1.907-1.646-2.255 1.284-.105 2.541-.094 3.876-.092v15.501l.683-.318 11.538-7.155L150.676.413c.297-.184.685-.286 1.039-.309.732-.046 1.47-.014 2.255.142l-1.54 1.004-17.771 11.444c-2.062 1.343-4.119 2.72-5.828 4.518-.45.474-.882.986-1.216 1.545-.605 1.013-.304 1.985.778 2.474.804.364 1.655.64 2.505.89l6.937 1.985 10.494 2.982c2.247.681 4.095 2.032 5.605 3.825.979 1.162 1.574 2.51 1.892 3.985.03.139.044.283.049.424.004.082-.023.166-.037.249h.001zm33.681-21.606a17.68 17.68 0 0 0-4.902-9.062c-2.474-2.472-5.416-4.128-8.909-4.639-1.352-.198-2.05-.295-3.428-.258-3.238.087-6.856 1.021-9.467 2.866-5.163 3.648-7.593 8.739-7.777 14.965 0 .513-.049 1.033.008 1.54.383 3.43 1.432 6.624 3.522 9.42 2.215 2.964 5.033 5.122 8.596 6.267 2.238.72 4.519.924 6.863.748 3.398-.255 6.388-1.475 9.05-3.555 2.541-1.987 4.337-4.52 5.571-7.475.913-2.192 1.258-4.51 1.347-6.842.05-1.319-.202-2.672-.474-3.976zm-2.469 4.118c-.076 4.637-1.428 8.812-4.569 12.324-2.215 2.478-4.954 4.071-8.274 4.511-4.209.558-7.8-.838-10.827-3.712-2.909-2.761-4.505-6.207-5.147-10.128-.636-3.884-.161-7.629 1.459-11.204 1.638-3.611 4.167-6.41 7.882-8.01 3.786-1.63 7.51-1.37 11.08.601 3.863 2.131 6.214 5.495 7.522 9.626.592 1.869.912 3.741.874 5.991zm-84.997 16.86h-1.105c-.083-.552-.211-1.022-.212-1.49l-.01-13.11c0-.161.038-.323.061-.506l.551-.034 9.472-.002.344.007c.697.07 1.075.509 1.037 1.205l-.065.597.131.032 1.601-2.655h-13.082l-.048-.4-.01-15.166c.004-1.713 1.304-2.931 3.037-2.932l13.605-.003c.257 0 .515-.027.772-.04-.107-.207-.224-.331-.342-.331L94.658.107l-.022.201c.739.42 1.631-.003 2.473.279l-.521.834-11.09 16.934-9.889 15.155c-.638.986-1.43 1.522-2.619 1.44-.169-.011-.344.047-.539.077.453.771 1.075.953 1.858.902.857-.055 1.72-.008 2.582-.016.18-.002.359-.051.552-.08-.263-.614-.648-.969-1.329-.952l.197-.38 9.204-14.169c.274-.424.579-.539 1.051-.538l11.021.009.72.034.04.361-.036 11.909c-.013 1.623-1.212 2.776-2.84 2.841-.284.011-.592-.092-.905.091.501.463.868.901 1.63.898l21.182-.022c.181 0 .364-.018.689-.035-.698-.642-1.291-.965-2.151-.957l-13.863.021zm-3.707-16.327c0 .083-.022.167-.042.316-.207.022-.425.065-.642.065l-6.457.002c-1.486-.006-2.778-.402-3.561-1.915l10.341-15.91.226.007c.046.3.134.599.134.898l.002 16.537zM50.584.136h5.25c-.019.051-.027.128-.053.135-1.093.298-1.354 1.125-1.355 2.111l-.006 9.085-.01 20.656c0 .738.082 1.478.145 2.215.014.162.11.316.208.581h15.746v.973h-20.3c.19-.365.506-.363.749-.455.615-.233 1.025-.612 1.071-1.304l.096-1.017.003-30.427-.029-.77c-.073-.775-.416-1.353-1.208-1.593-.069-.021-.127-.077-.307-.19zM40.708.089l4.375.002.68.03c-.034.081-.042.157-.072.166-.977.315-1.286 1.055-1.292 1.992l-.017 2.57v26.643l.012 1.799c-.031 1.149.322 2.023 1.572 2.301.078.017.149.075.22.12.021.014.03.045.045.069-.548.217-5.088.243-6.168-.018l.91-.343a1.41 1.41 0 0 0 1.032-1.241c.044-.338.114-.676.115-1.015l.009-9.08.011-20.304-.019-1.371c-.034-1.004-.275-1.878-1.459-2.144l.049-.178-.003.001z"/></svg>
